X: 37
T:Plodder Seam
% Nottingham Music Database
S:Eric Foxley
M:3/4
L:1/4
K:C
e/2d/2|"C"c2d|"C"egg|"F"f2a|"G7"g2f|"C"ecc|"G7"B2d|"C"c3-|"C"cga|
"Bb"_b3/2b/2b|"Bb"ga_b|"C"c'2c'|"C"e3/2d/2e|"F"f2f|"F"a2a|"C"g3-|"Cm"gga|
"Bb"_b3/2b/2b|"Bb"ga_b|"C"c'2c'|"C"e3/2d/2e|"F"f2f|"Dm"a2a|"G7"g3/2a/2g|
"G7"fed|"C"c2d|"C"egg|"F"f2a|"G7"g2f|"C"ecc|"Bb"_B2d|"C"c3-|"C"c2||


